!!!OTL: Neujahrslied (Band 1), S. 15
!!!id: P0777
**kern
*clefG2
*k[f#]
*D:
{8f#
8g
=1
8a
8a
8g
8f#
4e
8f#
8g
=2
4a
8g
8f#
4e}
8r
=3
{8f#
=4
8a
8a
8g
8f#
4e
8f#
8g
=5
4a
8g
8f#
4e}
4r
=6
{4d
4a
4.f#
8e
=7
8.d
16e
8f#
8g
4a}
8r
=8
{8dd
=9
4a
8a
8b
8.a
16g
8f#
8e
=10
8a
8a
8g
8e
4d}
==
*-
!!!minrhy: 16
!!!meters: 4/4 ]  ZZ[4
!!!cut: Neujahrslied (Band 1), S. 15
!!!reg: Lothringen
!!!trd: PINCK, Louis: Verklingende Weisen, Bd 1, Metz 1928
!!!rhy1: X_X_  X_X_X_X_X__X_X_  X__X_X_X__0   (x2)
!!!rhy2: X_  X_X_X_X_X__X_X_  X__X_X_X__0_
!!!key: P0777  16  D 4/4 ]  ZZ[4
!!!mod: SECHSTONSKALA DUR ?]  AMBITUS[8
!!!kad: 2251
!!!akz: 5252_5252_1315_5551_
!!!fot: 'a__av_b__c__
!!!for: 'a__av_b__c__
!!!fok: 'Md_Md_~a_\__
!! PHRAS[VORWIEGEND AUFTAKTIG]
!!!fkt: geistliche, religiöse Lieder
!! LOTH VKL
!! PR[7] 2K[10] 2G[18] 3K[0] 3G[1] 4A[13] 4Ü[0] 5A[0] 6K[0] 6G[0]
!! 7K[0] 7G[0] 8A[0] MEHR[0] SI[43] ABS[68] SR[28] SP[15]
!! ST[16] 2k[13] 2g[24] 3k[7] 3g[4] 4d[0] 4ü[0] 5d[1] 6k[0] 6g[0]
!! 7k[0] 7g[0] 8d[0] mehr[0] si[50] dm[-7] sr[37] sp[13]
!! 1F[4] 2F[33] 3F[44] 4F[6] LF[0] 2P[4] 3P[8] 4P[0] TRI[0] DF[6] AB[72]
!! TF[0] U3K[0] U3[0] U4[0] U4Ü[1] U5[13] U6K[0] U6[7] U7K[0] U7[16]
!! N1[25] N2K[0] N2[17] N3K[0] N3[13] N4[7] N4Ü[0] N5[0] N6K[0] N6[0]
!!!n7k: 0] N7[0] O1[0] O2K[0] O2[0] O3K[0] O3[0] HÖ[0
